X:1
T: Mr. Tierney's Reel
C:
R:Strathspey
Q: 128
K:G
M:4/4
L:1/16
|:d2|gg3 g3d B4 G2cd|e3c d3B c2A2 A2c2|gg3 g3d B4 G2AB|c3A d3c B2G2 G2d2|
gg3 g3d B4 G2cd|e3c d3B c2A2 A2c2|gg3 g3d B4 G2AB|c3A d3c B2G2 G2B2|
GFED E2G2 c2e2 A2c2|BG3 d3B e2A2 A2B2|GFED E2G2 c2e2 A2c2|Bd3 c3A B2G2 G2B2|
GFED E2G2 c2e2 A2c2|BG3 d3B e2A2 A2c2|B2G2 d2B2 c2A2 a2f2|g3d e3c B2G2 G2:|
